actions/16/media-playback-pause.svg

<?xml version="1.0" encoding="UTF-8" standalone="no"?>
<!-- Created with Inkscape (http://www.inkscape.org/) -->

<svg
   xmlns:svg="http://www.w3.org/2000/svg"
   xmlns="http://www.w3.org/2000/svg"
   xmlns:xlink="http://www.w3.org/1999/xlink"
   version="1.0"
   width="16"
   height="16"
   id="svg2829">
  <defs
     id="defs2831">
    <linearGradient
       x1="12.35"
       y1="13.958842"
       x2="12.35"
       y2="45.497795"
       id="linearGradient3777"
       xlink:href="#linearGradient5106"
       gradientUnits="userSpaceOnUse"
       gradientTransform="matrix(0.3672694,0,0,0.3661436,7.2046284,-0.7874431)" />
    <linearGradient
       x1="10.440458"
       y1="9.965703"
       x2="10.440458"
       y2="52.940395"
       id="linearGradient3775"
       xlink:href="#linearGradient2782"
       gradientUnits="userSpaceOnUse"
       gradientTransform="matrix(0.2958327,0,0,0.3366121,7.2499043,-0.1701734)" />
    <linearGradient
       id="linearGradient5106">
      <stop
         id="stop5108"
         style="stop-color:#729fcf;stop-opacity:1"
         offset="0" />
      <stop
         id="stop5110"
         style="stop-color:#3c77b4;stop-opacity:1"
         offset="1" />
    </linearGradient>
    <linearGradient
       x1="12.35"
       y1="13.958842"
       x2="12.35"
       y2="45.497795"
       id="linearGradient3789"
       xlink:href="#linearGradient5106"
       gradientUnits="userSpaceOnUse"
       gradientTransform="matrix(0.3672694,0,0,0.3661436,16.204628,-0.7874431)" />
    <linearGradient
       id="linearGradient2782">
      <stop
         id="stop2784"
         style="stop-color:white;stop-opacity:1"
         offset="0" />
      <stop
         id="stop2786"
         style="stop-color:white;stop-opacity:0"
         offset="1" />
    </linearGradient>
    <linearGradient
       x1="10.440458"
       y1="9.965703"
       x2="10.440458"
       y2="52.940395"
       id="linearGradient3791"
       xlink:href="#linearGradient2782"
       gradientUnits="userSpaceOnUse"
       gradientTransform="matrix(0.2958327,0,0,0.3366121,16.249904,-0.1701734)" />
  </defs>
  <g
     id="layer1">
    <path
       d="m 0.50455204,0.50455231 0,14.99089569 5.99089596,0 0,-14.99089569 -5.99089596,0 z"
       id="path2645"
       style="fill:url(#linearGradient3777);fill-opacity:1;fill-rule:evenodd;stroke:#245398;stroke-width:1.00910413;stroke-linecap:round;stroke-linejoin:round;stroke-miterlimit:4;stroke-opacity:1;stroke-dasharray:none;stroke-dashoffset:0;marker:none;visibility:visible;display:inline;overflow:visible" />
    <path
       d="m 1.5006575,1.5006572 0,12.9986848 3.998685,-0.0154 0,-12.9832838 -3.998685,0 z"
       id="path2647"
       style="opacity:0.41000001;fill:none;stroke:url(#linearGradient3775);stroke-width:1.00131488;stroke-linecap:round;stroke-linejoin:miter;stroke-miterlimit:4;stroke-opacity:0.97254902;stroke-dasharray:none;stroke-dashoffset:0;marker:none;visibility:visible;display:inline;overflow:visible" />
    <path
       d="m 9.5045521,0.50455231 0,14.99089569 5.9908959,0 0,-14.99089569 -5.9908959,0 z"
       id="path3785"
       style="fill:url(#linearGradient3789);fill-opacity:1;fill-rule:evenodd;stroke:#245398;stroke-width:1.00910413;stroke-linecap:round;stroke-linejoin:round;stroke-miterlimit:4;stroke-opacity:1;stroke-dasharray:none;stroke-dashoffset:0;marker:none;visibility:visible;display:inline;overflow:visible" />
    <path
       d="m 10.500657,1.5006572 0,12.9986848 3.998686,-0.0154 0,-12.9832838 -3.998686,0 z"
       id="path3787"
       style="opacity:0.41000001;fill:none;stroke:url(#linearGradient3791);stroke-width:1.00131488;stroke-linecap:round;stroke-linejoin:miter;stroke-miterlimit:4;stroke-opacity:0.97254902;stroke-dasharray:none;stroke-dashoffset:0;marker:none;visibility:visible;display:inline;overflow:visible" />
  </g>
</svg>

<?xml version="1.0" encoding="UTF-8" standalone="no"?>
<!-- Created with Inkscape (http://www.inkscape.org/) -->
<svg
   xmlns:dc="http://purl.org/dc/elements/1.1/"
   xmlns:cc="http://creativecommons.org/ns#"
   xmlns:rdf="http://www.w3.org/1999/02/22-rdf-syntax-ns#"
   xmlns:svg="http://www.w3.org/2000/svg"
   xmlns="http://www.w3.org/2000/svg"
   xmlns:xlink="http://www.w3.org/1999/xlink"
   xmlns:sodipodi="http://sodipodi.sourceforge.net/DTD/sodipodi-0.dtd"
   xmlns:inkscape="http://www.inkscape.org/namespaces/inkscape"
   width="16"
   height="16"
   id="svg2829"
   sodipodi:version="0.32"
   inkscape:version="0.46"
   version="1.0"
   sodipodi:docname="media-playback-pause.svg"
   inkscape:output_extension="org.inkscape.output.svg.inkscape">
  <defs
     id="defs2831">
    <linearGradient
       inkscape:collect="always"
       xlink:href="#linearGradient5106"
       id="linearGradient3777"
       gradientUnits="userSpaceOnUse"
       gradientTransform="matrix(0.3672694,0,0,0.3661436,7.2046284,-0.7874431)"
       x1="12.35"
       y1="13.958842"
       x2="12.35"
       y2="45.497795" />
    <linearGradient
       inkscape:collect="always"
       xlink:href="#linearGradient2782"
       id="linearGradient3775"
       gradientUnits="userSpaceOnUse"
       gradientTransform="matrix(0.2958327,0,0,0.3366121,7.2499043,-0.1701734)"
       x1="10.440458"
       y1="9.965703"
       x2="10.440458"
       y2="52.940395" />
    <linearGradient
       id="linearGradient5106">
      <stop
         id="stop5108"
         offset="0"
         style="stop-color:#729fcf;stop-opacity:1;" />
      <stop
         id="stop5110"
         offset="1"
         style="stop-color:#3c77b4;stop-opacity:1;" />
    </linearGradient>
    <linearGradient
       inkscape:collect="always"
       xlink:href="#linearGradient5106"
       id="linearGradient3789"
       gradientUnits="userSpaceOnUse"
       gradientTransform="matrix(0.3672694,0,0,0.3661436,16.204628,-0.7874431)"
       x1="12.35"
       y1="13.958842"
       x2="12.35"
       y2="45.497795" />
    <linearGradient
       id="linearGradient2782">
      <stop
         id="stop2784"
         offset="0"
         style="stop-color:white;stop-opacity:1;" />
      <stop
         id="stop2786"
         offset="1"
         style="stop-color:white;stop-opacity:0;" />
    </linearGradient>
    <linearGradient
       inkscape:collect="always"
       xlink:href="#linearGradient2782"
       id="linearGradient3791"
       gradientUnits="userSpaceOnUse"
       gradientTransform="matrix(0.2958327,0,0,0.3366121,16.249904,-0.1701734)"
       x1="10.440458"
       y1="9.965703"
       x2="10.440458"
       y2="52.940395" />
  </defs>
  <sodipodi:namedview
     id="base"
     pagecolor="#ffffff"
     bordercolor="#666666"
     borderopacity="1.0"
     inkscape:pageopacity="0.0"
     inkscape:pageshadow="2"
     inkscape:zoom="11.197802"
     inkscape:cx="16"
     inkscape:cy="16"
     inkscape:current-layer="layer1"
     showgrid="true"
     inkscape:grid-bbox="true"
     inkscape:document-units="px"
     inkscape:window-width="640"
     inkscape:window-height="720"
     inkscape:window-x="800"
     inkscape:window-y="88" />
  <metadata
     id="metadata2834">
    <rdf:RDF>
      <cc:Work
         rdf:about="">
        <dc:format>image/svg+xml</dc:format>
        <dc:type
           rdf:resource="http://purl.org/dc/dcmitype/StillImage" />
      </cc:Work>
    </rdf:RDF>
  </metadata>
  <g
     id="layer1"
     inkscape:label="Layer 1"
     inkscape:groupmode="layer">
    <path
       style="display:inline;fill:url(#linearGradient3777);fill-opacity:1;fill-rule:evenodd;stroke:#245398;stroke-width:1.00910413000000010;stroke-linecap:round;stroke-linejoin:round;marker:none;marker-start:none;marker-mid:none;marker-end:none;stroke-miterlimit:4;stroke-dasharray:none;stroke-dashoffset:0;stroke-opacity:1;visibility:visible;overflow:visible"
       d="M 0.50455204,0.50455231 L 0.50455204,15.495448 L 6.495448,15.495448 L 6.495448,0.50455231 L 0.50455204,0.50455231 z"
       id="path2645" />
    <path
       style="display:inline;opacity:0.41000001000000003;fill:none;fill-opacity:1;fill-rule:evenodd;stroke:url(#linearGradient3775);stroke-width:1.00131488000000002;stroke-linecap:round;stroke-linejoin:miter;marker:none;marker-start:none;marker-mid:none;marker-end:none;stroke-miterlimit:4;stroke-dasharray:none;stroke-dashoffset:0;stroke-opacity:0.97254901999999999;visibility:visible;overflow:visible"
       d="M 1.5006575,1.5006572 L 1.5006575,14.499342 L 5.4993425,14.483941 L 5.4993425,1.5006572 L 1.5006575,1.5006572 z"
       id="path2647"
       sodipodi:nodetypes="ccccc" />
    <path
       style="display:inline;fill:url(#linearGradient3789);fill-opacity:1;fill-rule:evenodd;stroke:#245398;stroke-width:1.00910413000000010;stroke-linecap:round;stroke-linejoin:round;marker:none;marker-start:none;marker-mid:none;marker-end:none;stroke-miterlimit:4;stroke-dasharray:none;stroke-dashoffset:0;stroke-opacity:1;visibility:visible;overflow:visible"
       d="M 9.5045521,0.50455231 L 9.5045521,15.495448 L 15.495448,15.495448 L 15.495448,0.50455231 L 9.5045521,0.50455231 z"
       id="path3785" />
    <path
       style="display:inline;opacity:0.41000001000000003;fill:none;fill-opacity:1;fill-rule:evenodd;stroke:url(#linearGradient3791);stroke-width:1.00131488000000002;stroke-linecap:round;stroke-linejoin:miter;marker:none;marker-start:none;marker-mid:none;marker-end:none;stroke-miterlimit:4;stroke-dasharray:none;stroke-dashoffset:0;stroke-opacity:0.97254901999999999;visibility:visible;overflow:visible"
       d="M 10.500657,1.5006572 L 10.500657,14.499342 L 14.499343,14.483941 L 14.499343,1.5006572 L 10.500657,1.5006572 z"
       id="path3787"
       sodipodi:nodetypes="ccccc" />
  </g>
</svg>
